X:507
T: DER GUTZGAUCH HAT SICH ZU TODE GEFALLN
N: E0481
O: Europa, Mitteleuropa, Deutschland
R: Liebes - Lied
M: 3/4
L: 1/4
K: C
C | G2G | F2F | G2G | C2
C | G2F | _B2A | G2F | G2
G | c2c | A2A | _B2B | G2
C | _E2F | G2F | _E2D | C2

@@@ Tune index: 4157
